X: 9
T: Acord\'es moy
N: Derived from Bus3001-Acordes_moy.krn
C: Antoine Busnoys
%%abc-version 2.0
%%abcx-abcm2ps-target-version 5.9.1 (29 Sep 2008)
%%abc-creator hum2abc beta
%%abcx-conversion-date 2019/02/16 20:26:06
%%abc-edited-by Jesse Rodin
%%abc-edited-by Chris Gage 04-20-2015
%%abcx-initial-encoding-date 2015/05/01/
%%humdrum-veritas 87024189
%%humdrum-veritas-data 1966662436
%%linebreak <none>
%%barnumbers 0
L: 1/4
M: 2/1
Q: 1/2=120
%%staves [1 2 3 4]
V: 1 clef=treble
V: 2 clef=treble-8
V: 3 clef=bass
V: 4 clef=bass
K: F
[V:1] z8 | 
[V:2] z8 | 
[V:3] z8 | 
[V:4] z8 | 
[V:1] z8 | 
[V:2] z4G4 | 
[V:3] z8 | 
[V:4] z4G,4 | 
[V:1] z8 | 
[V:2] B6G2 | 
[V:3] z8 | 
[V:4] G,6E,2 | 
[V:1] z8 | 
[V:2] A4B4 | 
[V:3] z8 | 
[V:4] F,4G,4 | 
[V:1] z8 | 
[V:2] G4z4 | 
[V:3] z8 | 
[V:4] z4B,4 | 
[V:1] z8 | 
[V:2] d4c2f2 | 
[V:3] z8 | 
[V:4] B,4A,4 | 
[V:1] z8 | 
[V:2] e2d3Bc2 | 
[V:3] z8 | 
[V:4] G,2F,E,D,2E,2 | 
[V:1] z8 | 
[V:2] d2cBA4 | 
[V:3] z8 | 
[V:4] F,2G,4^F,2 | 
[V:1] z4G4 | 
[V:2] G4z4 | 
[V:3] z4G,4 | 
[V:4] G,4z4 | 
[V:1] G6E2 | 
[V:2] z8 | 
[V:3] B,6G,2 | 
[V:4] z8 | 
[V:1] F4G4 | 
[V:2] z8 | 
[V:3] A,4B,4 | 
[V:4] z8 | 
[V:1] z4B4 | 
[V:2] z8 | 
[V:3] G,4z2G,2- | 
[V:4] z8 | 
[V:1] B4A4 | 
[V:2] z8 | 
[V:3] G,2D3CA,2 | 
[V:4] z8 | 
[V:1] G2FED3E | 
[V:2] z8 | 
[V:3] B,2A,G,F,2G,2 | 
[V:4] z8 | 
[V:1] F2G4^F2 | 
[V:2] z8 | 
[V:3] A,2B,2A,4 | 
[V:4] z8 | 
[V:1] G8 | 
[V:2] B8 | 
[V:3] G,4z4 | 
[V:4] z4G,4 | 
[V:1] z8 | 
[V:2] A4A4 | 
[V:3] z8 | 
[V:4] A,2^F,4E,F, | 
[V:1] B8 | 
[V:2] G4G4 | 
[V:3] z4G,4 | 
[V:4] G,4z4 | 
[V:1] A4A4 | 
[V:2] c4c4 | 
[V:3] A,2^F,4E,F, | 
[V:4] z8 | 
[V:1] G4G4 | 
[V:2] B4G4 | 
[V:3] G,2B,3A,G,2- | 
[V:4] z8 | 
[V:1] c4c4 | 
[V:2] A8 | 
[V:3] G,2^F,E,F,4 | 
[V:4] z8 | 
[V:1] B6AG | 
[V:2] G8 | 
[V:3] z8 | 
[V:4] G,6F,E, | 
[V:1] A2G4FE | 
[V:2] z4c4 | 
[V:3] C6A,2 | 
[V:4] F,2E,2C,4 | 
[V:1] D2F4G2 | 
[V:2] B2d4cB | 
[V:3] B,2B,4A,G, | 
[V:4] z8 | 
[V:1] A3Bc4 | 
[V:2] cBAGA4 | 
[V:3] F,3E,C,4 | 
[V:4] F,,8 | 
[V:1] B2G2A2B2- | 
[V:2] G4F2G2- | 
[V:3] z4z2G,,B,,- | 
[V:4] G,,B,,2C,A,,2z2 | 
[V:1] BAF2G2B2 | 
[V:2] G2A2B2AG | 
[V:3] B,,C,A,,2z2D,2 | 
[V:4] z4G,,4 | 
[V:1] A2c3BA2 | 
[V:2] F2A3Bc2 | 
[V:3] C,2F,3G,A,2 | 
[V:4] A,,4F,,4 | 
[V:1] G2B4AG | 
[V:2] B2d4cB | 
[V:3] D,4G,4 | 
[V:4] G,,8 | 
[V:1] ^F8- | 
[V:2] A8- | 
[V:3] z4D4 | 
[V:4] D,8- | 
[V:1] F8 | 
[V:2] A8 | 
[V:3] D8 | 
[V:4] D,8 | 
[V:1] D8 | 
[V:2] z8 | 
[V:3] z8 | 
[V:4] B,6A,G, | 
[V:1] C4B,4 | 
[V:2] z8 | 
[V:3] z8 | 
[V:4] A,G,F,E,D,2G,2 | 
[V:1] A,8 | 
[V:2] z8 | 
[V:3] z8 | 
[V:4] A,2^F,4E,2 | 
[V:1] G,8 | 
[V:2] d8 | 
[V:3] B,6A,G, | 
[V:4] G,4z4 | 
[V:1] z8 | 
[V:2] c4B4 | 
[V:3] A,G,F,E,D,2G,2 | 
[V:4] z8 | 
[V:1] z4C4 | 
[V:2] A8 | 
[V:3] A,2^F,4E,2 | 
[V:4] z8 | 
[V:1] B,3A,G,2F,2- | 
[V:2] G4d4- | 
[V:3] G,4z4 | 
[V:4] G,,6B,,2- | 
[V:1] F,2G,2A,4 | 
[V:2] d2B2c4 | 
[V:3] z8 | 
[V:4] B,,A,,G,,2F,,4 | 
[V:1] G,4D4- | 
[V:2] B3AG2F2- | 
[V:3] G,,6B,,2- | 
[V:4] z8 | 
[V:1] D2B,2C4 | 
[V:2] F2G2A4 | 
[V:3] B,,A,,G,,2F,,4 | 
[V:4] z8 | 
[V:1] B,3C_E2D2- | 
[V:2] G6F2 | 
[V:3] z8 | 
[V:4] G,,6B,,2- | 
[V:1] DCB,A,C4 | 
[V:2] D4E4 | 
[V:3] F,4A,4 | 
[V:4] B,,C,D,2A,,4 | 
[V:1] D2F3ED2- | 
[V:2] D6G2- | 
[V:3] G,2F,2D,4 | 
[V:4] B,,8 | 
[V:1] DCA,2B,4 | 
[V:2] G2F2G2E2 | 
[V:3] (3:2:2E,2C,4D,4 | 
[V:4] A,,4G,,4 | 
[V:1] A,4z4 | 
[V:2] ^F8 | 
[V:3] z4D,4 | 
[V:4] D,4z4 | 
[V:1] A8 | 
[V:2] z4^F4 | 
[V:3] z4A,,4 | 
[V:4] A,,4z4 | 
[V:1] B4B4 | 
[V:2] G4G4 | 
[V:3] z4G,,4 | 
[V:4] G,,4z4 | 
[V:1] c4c4 | 
[V:2] A4A4 | 
[V:3] z4F,,4 | 
[V:4] F,,4z4 | 
[V:1] B6AG | 
[V:2] G6FE | 
[V:3] z4G,,4 | 
[V:4] G,,4z4 | 
[V:1] B3AF2B2- | 
[V:2] D4z2d2- | 
[V:3] G,4A,2B,2- | 
[V:4] G,,2B,,2A,,2G,,2- | 
[V:1] BAGFE4 | 
[V:2] d2B2c4 | 
[V:3] B,2D2A,4 | 
[V:4] G,,4A,,4 | 
[V:1] D2F2E2D2- | 
[V:2] d4c2B2- | 
[V:3] F,3G,A,2D,2- | 
[V:4] B,,4z4 | 
[V:1] D2C2D2CB, | 
[V:2] BGA2B2AG | 
[V:3] D,E,F,2B,,4 | 
[V:4] z4G,,4 | 
[V:1] A,2G,2D3E | 
[V:2] F2G3ABc | 
[V:3] z4D,4 | 
[V:4] D,2B,,3A,,G,,2 | 
[V:1] F2G2A3G | 
[V:2] A2G2d3e | 
[V:3] z4D,2F,2- | 
[V:4] D,2E,2F,2D,2- | 
[V:1] A2B4AG | 
[V:2] f2d4cB | 
[V:3] F,E,F,2G,4 | 
[V:4] D,C,B,,A,,G,,4 | 
[V:1] F2G2B2A2- | 
[V:2] A2B2d2c2- | 
[V:3] D,2G,4E,2 | 
[V:4] z2G,,4A,,2 | 
[V:1] AG^FEF4 | 
[V:2] cBAGA4 | 
[V:3] F,2D,2z2D,2 | 
[V:4] F,,2G,,2D,4 | 
[V:1] G8 |]  
[V:2] G8 |]  
[V:3] _E,3D,D,4 |]  
[V:4] G,,8 |]  



